X:076
T: Hey Tutty Tatey
N: O'Farrell's Pocket Companion v.1 (Sky ed. p.49)
N: "Scotch"
M: C
L: 1/8
Q: 80 %"slow"
K: D
z2|A<FA>B A2 d2|B<dBA B2 de|de/f/ e>d defe|d>BB>A A2||
P:2
de|f2 ff f2a2|e>fed efgb|afe>d defe|d>BB>A A2 :|
P:3
z2|A/F/A/B/ A/B/A/F/ A2 d>A|B>d B/d/B/A/ B2 de|
d/e/f e>d d/c/d/e/ d/e/f/e/|d>BB>A A2 :|
P:4
z2|f/e/f/g/ f/e/f/d/ f>g ag/f/|e/d/e/f/ e/f/e/d/ ef g g//>a//b/|
ag/f/ g/f/e/d/ d>e d/e/f/e/|d>BB>A A2 :|
